X:1
T:卡萨布兰卡
M:4/4
L:1/8
V:1
Q:1/4=80
K:C
|zEccc2BB-|BBB2A2G2|GGA6|z8|
|z2BBB2A2|A3GG3F|FEEGG4|z8|
|EE2EE3^F|^G2AB-B4|zEccB2c2|d2c2B2A2|
|z2BBB2BB|c2B2AG-G2|A4z4|
|z6ee|f3ed3c|B3dd3c|d2e6|
|z6ee|f3ed3c|B3BB2g2|gde6|
|e3dc3B|A3AA3G|G2A6|z6zA|
|ddddd3c|BAG2B2B2|cBA6|